door-closed.svg

<svg fill="currentColor" viewBox="0 0 24 24"><path d="M16 11h2v2h-2zm-4-8h7c1.11 0 2 .89 2 2v14h1v2H2v-2h8V5c0-1.11.89-2 2-2m0 2v14h7V5z"/></svg>

<svg  viewBox="0 0 24 24" fill="currentColor"><path  d="M16,11H18V13H16V11M12,3H19C20.11,3 21,3.89 21,5V19H22V21H2V19H10V5C10,3.89 10.89,3 12,3M12,5V19H19V5H12Z"/></svg>
